!!!OTL: HaoHuar,xinwoli changchulai
!!!ARE: Asia, China,ÿQinghai Minhe Mayeng
!! I, 241
!!!SCT: C2084
!!!YEM: Copyright 1995, estate of Helmut Schaffrath.
**kern
*ICvox
*Ivox
*M2/4
*k[b-e-a-d-]
*A-:
{4ff
8ee-
8ee-
=1
8ff
16aa-
16bb-
8bb-
16ff
16aa-
=2
8ff
8ee-
8ff
16ff
16aa-
=3
8bb-
8bb-
[4bb-
=4
4.bb-]
8ff}
=5
{8bb-
16bb-
16eee-
8eee-
16eee-
16fff
=6
16ccc
16bb-
16bb-
16aa-
16aa-
16ff
16r
16ff
=7
4bb-
8bb-
8eee-
=8
4.eee-
8fff
=9
4eee-
4r}
=10
{16aa-
8ff
16ee-
8ff
8ee-
=11
4bb-
4bb-
=12
[2bb-
=13
4.bb-]
8ff}
=14
{8bb-
16bb-
16eee-
8eee-
16eee-
16fff
=15
16ccc
16bb-
16bb-
16ccc
16bb-
16ccc
16bb-
16aa-
=16
8ff}
{16r
16ee-
8bb-
16bb-
16ccc
=17
8bb-
16aa-
16bb-
8bb-
16ff
16aa-
=18
4ff
8.ff
16ee-
=19
4ee-
[4ee-
=20
4.ee-]
8ff
=21
4ee-
4r}
==
!!!AGN: Shange, Mayengling
!!!ONB: ESAC (Essen Associative Code) Database: SENGANSU
!!!AMT: simple duple
!!!AIN: vox
!!!EED: Helmut Schaffrath
!!!EEV: 1.0
*-
!!!ONB: Tied note syntax fixed by Craig Sapp, 2004/05/03/
